packages/icons/web/elo_large.svg

<svg width="24" height="24" viewBox="0 0 24 24" fill="none" xmlns="http://www.w3.org/2000/svg">
<path d="M20.0197 6.02471C21.3087 7.74985 22.0036 9.84647 22 12C22 17.5224 17.5224 22 12 22C6.47764 22 2 17.5224 2 12C2 6.47668 6.47764 2 12 2C15.2826 2 18.1955 3.58192 20.0197 6.02471Z" fill="#050013"/>
<path d="M7.70316 9.31968C9.12232 9.31966 10.357 10.2912 10.6908 11.6705L9.45265 12.2125V12.2097L8.18482 12.767L5.14546 14.0951C4.51791 13.1518 4.46015 11.9398 4.99514 10.9411C5.53014 9.94238 6.57114 9.31894 7.70411 9.31872L7.70316 9.31968ZM9.0227 11.2301L5.9527 12.5534C5.88336 11.7958 6.30923 11.0795 7.00797 10.7785C7.70671 10.4775 8.51977 10.6601 9.0227 11.231V11.2301ZM9.85101 14.5912C8.74979 15.6349 7.29427 15.7374 6.0159 14.9608L6.73792 13.8624C7.46568 14.2972 8.19727 14.2263 8.93173 13.6508L9.85101 14.5912ZM11.1016 13.8299L11.0939 8.01929H12.1952V13.6738C12.1952 13.7274 12.2019 13.7753 12.2727 13.8031L13.2303 14.1756L12.7994 15.2978L11.6771 14.8229C11.2519 14.6429 11.1026 14.3824 11.1026 13.8299H11.1016Z" fill="white"/>
<path d="M15.248 13.7322C14.8435 13.4194 14.596 12.9453 14.5705 12.4345C14.5451 11.9237 14.7444 11.4274 15.1159 11.0759L14.4044 9.92297C13.6325 10.5317 13.1965 11.4717 13.2304 12.4542C13.2642 13.4367 13.7638 14.3444 14.5758 14.8986L15.248 13.7322Z" fill="#009DD7"/>
<path d="M15.7299 10.6967C16.6318 10.3725 17.627 10.8322 17.9649 11.729L19.3276 11.616C19.1146 10.7429 18.5324 10.0057 17.7324 9.59605C16.9325 9.18645 15.994 9.14501 15.1611 9.48251L15.7299 10.6967Z" fill="#FFF200"/>
<path d="M18.0751 12.4329C18.0496 12.9578 17.7901 13.4437 17.3679 13.7568C16.9457 14.0699 16.4054 14.1773 15.8957 14.0493L15.3613 15.2864C16.2818 15.5883 17.2905 15.4411 18.0863 14.8888C18.8821 14.3364 19.3728 13.4429 19.4119 12.475L18.0751 12.4329Z" fill="#E33206"/>
</svg>

<svg width="24" height="24" fill="none" xmlns="http://www.w3.org/2000/svg">
    <path d="M20.02 6.025A9.955 9.955 0 0122 12c0 5.522-4.478 10-10 10S2 17.522 2 12C2 6.477 6.478 2 12 2a9.988 9.988 0 018.02 4.025z" fill="#050013"/>
    <path d="M7.703 9.32c1.42 0 2.654.971 2.988 2.35l-1.238.543v-.003l-1.268.557-3.04 1.328a3.074 3.074 0 012.56-4.776h-.002zm1.32 1.91l-3.07 1.323a1.758 1.758 0 013.07-1.322zm.828 3.361c-1.101 1.044-2.557 1.146-3.835.37l.722-1.099c.728.435 1.46.364 2.194-.211l.919.94zm1.25-.761l-.007-5.81h1.101v5.654c0 .053.007.101.078.13l.957.372-.43 1.122-1.123-.475c-.425-.18-.574-.44-.574-.993h-.001z" fill="#fff"/>
    <path d="M15.248 13.732a1.75 1.75 0 01-.132-2.656l-.712-1.153a3.088 3.088 0 00.172 4.976l.672-1.167z" fill="#009DD7"/>
    <path d="M15.73 10.697a1.754 1.754 0 012.235 1.032l1.363-.113a3.093 3.093 0 00-4.167-2.133l.569 1.214z" fill="#FFF200"/>
    <path d="M18.075 12.433a1.754 1.754 0 01-2.18 1.616l-.534 1.237a3.09 3.09 0 004.05-2.811l-1.336-.042z" fill="#E33206"/>
</svg>
